images/6605144.svg

<?xml version="1.0" encoding="UTF-8"?>
<svg xmlns="http://www.w3.org/2000/svg" xmlns:xlink="http://www.w3.org/1999/xlink" width="300pt" height="300pt" viewBox="0 0 300 300" version="1.1">
<defs>
<g>
<symbol overflow="visible" id="glyph0-0">
<path style="stroke:none;" d="M 0.453125 1.59375 L 0.453125 -6.34375 L 4.953125 -6.34375 L 4.953125 1.59375 Z M 0.953125 1.09375 L 4.453125 1.09375 L 4.453125 -5.84375 L 0.953125 -5.84375 Z M 0.953125 1.09375 "/>
</symbol>
<symbol overflow="visible" id="glyph0-1">
<path style="stroke:none;" d="M 0.890625 -6.5625 L 2.078125 -6.5625 L 4.984375 -1.078125 L 4.984375 -6.5625 L 5.84375 -6.5625 L 5.84375 0 L 4.65625 0 L 1.75 -5.484375 L 1.75 0 L 0.890625 0 Z M 0.890625 -6.5625 "/>
</symbol>
<symbol overflow="visible" id="glyph0-2">
<path style="stroke:none;" d="M 0.890625 -6.5625 L 1.765625 -6.5625 L 1.765625 -3.875 L 5 -3.875 L 5 -6.5625 L 5.890625 -6.5625 L 5.890625 0 L 5 0 L 5 -3.125 L 1.765625 -3.125 L 1.765625 0 L 0.890625 0 Z M 0.890625 -6.5625 "/>
</symbol>
</g>
</defs>
<g id="surface34233">
<rect x="0" y="0" width="300" height="300" style="fill:rgb(100%,100%,100%);fill-opacity:1;stroke:none;"/>
<path style="fill:none;stroke-width:1.2;stroke-linecap:butt;stroke-linejoin:miter;stroke:rgb(0%,0%,0%);stroke-opacity:1;stroke-miterlimit:10;" d="M 159.554688 221.4375 L 156.015625 199.148438 "/>
<path style="fill:none;stroke-width:1.2;stroke-linecap:butt;stroke-linejoin:miter;stroke:rgb(0%,0%,0%);stroke-opacity:1;stroke-miterlimit:10;" d="M 156.015625 199.148438 L 145.480469 195.109375 "/>
<path style="fill:none;stroke-width:1.2;stroke-linecap:butt;stroke-linejoin:miter;stroke:rgb(0%,0%,100%);stroke-opacity:1;stroke-miterlimit:10;" d="M 145.480469 195.109375 L 134.941406 191.070312 "/>
<path style="fill:none;stroke-width:1.2;stroke-linecap:butt;stroke-linejoin:miter;stroke:rgb(0%,0%,0%);stroke-opacity:1;stroke-miterlimit:10;" d="M 155.808594 193.382812 L 147.378906 190.152344 "/>
<path style="fill:none;stroke-width:1.2;stroke-linecap:butt;stroke-linejoin:miter;stroke:rgb(0%,0%,100%);stroke-opacity:1;stroke-miterlimit:10;" d="M 147.378906 190.152344 L 138.949219 186.921875 "/>
<path style="fill:none;stroke-width:1.2;stroke-linecap:butt;stroke-linejoin:miter;stroke:rgb(0%,0%,100%);stroke-opacity:1;stroke-miterlimit:10;" d="M 173.546875 184.941406 L 164.78125 192.046875 "/>
<path style="fill:none;stroke-width:1.2;stroke-linecap:butt;stroke-linejoin:miter;stroke:rgb(0%,0%,0%);stroke-opacity:1;stroke-miterlimit:10;" d="M 164.78125 192.046875 L 156.015625 199.148438 "/>
<path style="fill:none;stroke-width:1.2;stroke-linecap:butt;stroke-linejoin:miter;stroke:rgb(0%,0%,100%);stroke-opacity:1;stroke-miterlimit:10;" d="M 134.941406 191.070312 L 133.171875 179.925781 "/>
<path style="fill:none;stroke-width:1.2;stroke-linecap:butt;stroke-linejoin:miter;stroke:rgb(0%,0%,0%);stroke-opacity:1;stroke-miterlimit:10;" d="M 133.171875 179.925781 L 131.402344 168.78125 "/>
<path style=" stroke:none;fill-rule:nonzero;fill:rgb(100%,100%,100%);fill-opacity:1;" d="M 131.941406 185.570312 L 138.941406 185.570312 L 138.941406 196.570312 L 131.941406 196.570312 Z M 131.941406 185.570312 "/>
<g style="fill:rgb(0%,0%,100%);fill-opacity:1;">
  <use xlink:href="#glyph0-1" x="131.941406" y="194.233398"/>
</g>
<path style="fill:none;stroke-width:1.2;stroke-linecap:butt;stroke-linejoin:miter;stroke:rgb(0%,0%,0%);stroke-opacity:1;stroke-miterlimit:10;" d="M 131.402344 168.78125 L 148.933594 154.574219 "/>
<path style="fill:none;stroke-width:1.2;stroke-linecap:butt;stroke-linejoin:miter;stroke:rgb(0%,0%,0%);stroke-opacity:1;stroke-miterlimit:10;" d="M 129.8125 163.238281 L 143.839844 151.867188 "/>
<path style="fill:none;stroke-width:1.2;stroke-linecap:butt;stroke-linejoin:miter;stroke:rgb(0%,0%,100%);stroke-opacity:1;stroke-miterlimit:10;" d="M 112.46875 156.5 L 121.9375 162.640625 "/>
<path style="fill:none;stroke-width:1.2;stroke-linecap:butt;stroke-linejoin:miter;stroke:rgb(0%,0%,0%);stroke-opacity:1;stroke-miterlimit:10;" d="M 121.9375 162.640625 L 131.402344 168.78125 "/>
<path style="fill:none;stroke-width:1.2;stroke-linecap:butt;stroke-linejoin:miter;stroke:rgb(0%,0%,0%);stroke-opacity:1;stroke-miterlimit:10;" d="M 148.933594 154.574219 L 170.007812 162.652344 "/>
<path style="fill:none;stroke-width:1.2;stroke-linecap:butt;stroke-linejoin:miter;stroke:rgb(0%,0%,0%);stroke-opacity:1;stroke-miterlimit:10;" d="M 148.933594 154.574219 L 144.886719 144.039062 "/>
<path style="fill:none;stroke-width:1.2;stroke-linecap:butt;stroke-linejoin:miter;stroke:rgb(0%,0%,100%);stroke-opacity:1;stroke-miterlimit:10;" d="M 144.886719 144.039062 L 140.839844 133.507812 "/>
<path style="fill:none;stroke-width:1.2;stroke-linecap:butt;stroke-linejoin:miter;stroke:rgb(0%,0%,0%);stroke-opacity:1;stroke-miterlimit:10;" d="M 170.007812 162.652344 L 171.777344 173.796875 "/>
<path style="fill:none;stroke-width:1.2;stroke-linecap:butt;stroke-linejoin:miter;stroke:rgb(0%,0%,100%);stroke-opacity:1;stroke-miterlimit:10;" d="M 171.777344 173.796875 L 173.546875 184.941406 "/>
<path style="fill:none;stroke-width:1.2;stroke-linecap:butt;stroke-linejoin:miter;stroke:rgb(0%,0%,0%);stroke-opacity:1;stroke-miterlimit:10;" d="M 165.117188 165.714844 L 166.535156 174.628906 "/>
<path style="fill:none;stroke-width:1.2;stroke-linecap:butt;stroke-linejoin:miter;stroke:rgb(0%,0%,100%);stroke-opacity:1;stroke-miterlimit:10;" d="M 166.535156 174.628906 L 167.949219 183.542969 "/>
<path style="fill:none;stroke-width:1.2;stroke-linecap:butt;stroke-linejoin:miter;stroke:rgb(0%,0%,0%);stroke-opacity:1;stroke-miterlimit:10;" d="M 170.007812 162.652344 L 178.773438 155.546875 "/>
<path style="fill:none;stroke-width:1.2;stroke-linecap:butt;stroke-linejoin:miter;stroke:rgb(0%,0%,100%);stroke-opacity:1;stroke-miterlimit:10;" d="M 178.773438 155.546875 L 187.539062 148.441406 "/>
<path style=" stroke:none;fill-rule:nonzero;fill:rgb(100%,100%,100%);fill-opacity:1;" d="M 170.546875 179.441406 L 177.546875 179.441406 L 177.546875 190.441406 L 170.546875 190.441406 Z M 170.546875 179.441406 "/>
<g style="fill:rgb(0%,0%,100%);fill-opacity:1;">
  <use xlink:href="#glyph0-1" x="170.546875" y="188.104492"/>
</g>
<path style="fill:none;stroke-width:1.2;stroke-linecap:butt;stroke-linejoin:miter;stroke:rgb(0%,0%,100%);stroke-opacity:1;stroke-miterlimit:10;" d="M 187.539062 148.441406 L 198.078125 152.480469 "/>
<path style="fill:none;stroke-width:1.2;stroke-linecap:butt;stroke-linejoin:miter;stroke:rgb(0%,0%,0%);stroke-opacity:1;stroke-miterlimit:10;" d="M 198.078125 152.480469 L 208.613281 156.519531 "/>
<path style=" stroke:none;fill-rule:nonzero;fill:rgb(100%,100%,100%);fill-opacity:1;" d="M 180.539062 142.941406 L 194.539062 142.941406 L 194.539062 153.941406 L 180.539062 153.941406 Z M 180.539062 142.941406 "/>
<g style="fill:rgb(0%,0%,100%);fill-opacity:1;">
  <use xlink:href="#glyph0-1" x="180.539062" y="151.604492"/>
  <use xlink:href="#glyph0-2" x="187.516602" y="151.604492"/>
</g>
<path style="fill:none;stroke-width:1.2;stroke-linecap:butt;stroke-linejoin:miter;stroke:rgb(0%,0%,0%);stroke-opacity:1;stroke-miterlimit:10;" d="M 208.613281 156.519531 L 226.144531 142.308594 "/>
<path style="fill:none;stroke-width:1.2;stroke-linecap:butt;stroke-linejoin:miter;stroke:rgb(0%,0%,0%);stroke-opacity:1;stroke-miterlimit:10;" d="M 226.144531 142.308594 L 247.21875 150.386719 "/>
<path style="fill:none;stroke-width:1.2;stroke-linecap:butt;stroke-linejoin:miter;stroke:rgb(0%,0%,0%);stroke-opacity:1;stroke-miterlimit:10;" d="M 230.152344 138.160156 L 247.011719 144.621094 "/>
<path style="fill:none;stroke-width:1.2;stroke-linecap:butt;stroke-linejoin:miter;stroke:rgb(0%,0%,0%);stroke-opacity:1;stroke-miterlimit:10;" d="M 222.605469 120.019531 L 226.144531 142.308594 "/>
<path style="fill:none;stroke-width:1.2;stroke-linecap:butt;stroke-linejoin:miter;stroke:rgb(0%,0%,0%);stroke-opacity:1;stroke-miterlimit:10;" d="M 247.21875 150.386719 L 264.75 136.179688 "/>
<path style="fill:none;stroke-width:1.2;stroke-linecap:butt;stroke-linejoin:miter;stroke:rgb(0%,0%,0%);stroke-opacity:1;stroke-miterlimit:10;" d="M 264.75 136.179688 L 261.210938 113.890625 "/>
<path style="fill:none;stroke-width:1.2;stroke-linecap:butt;stroke-linejoin:miter;stroke:rgb(0%,0%,0%);stroke-opacity:1;stroke-miterlimit:10;" d="M 259.152344 134.78125 L 256.320312 116.953125 "/>
<path style="fill:none;stroke-width:1.2;stroke-linecap:butt;stroke-linejoin:miter;stroke:rgb(0%,0%,0%);stroke-opacity:1;stroke-miterlimit:10;" d="M 261.210938 113.890625 L 240.136719 105.8125 "/>
<path style="fill:none;stroke-width:1.2;stroke-linecap:butt;stroke-linejoin:miter;stroke:rgb(0%,0%,0%);stroke-opacity:1;stroke-miterlimit:10;" d="M 240.136719 105.8125 L 222.605469 120.019531 "/>
<path style="fill:none;stroke-width:1.2;stroke-linecap:butt;stroke-linejoin:miter;stroke:rgb(0%,0%,0%);stroke-opacity:1;stroke-miterlimit:10;" d="M 241.726562 111.359375 L 227.703125 122.726562 "/>
<path style="fill:none;stroke-width:1.2;stroke-linecap:butt;stroke-linejoin:miter;stroke:rgb(0%,0%,100%);stroke-opacity:1;stroke-miterlimit:10;" d="M 140.839844 133.507812 L 129.570312 134.101562 "/>
<path style="fill:none;stroke-width:1.2;stroke-linecap:butt;stroke-linejoin:miter;stroke:rgb(0%,0%,0%);stroke-opacity:1;stroke-miterlimit:10;" d="M 129.570312 134.101562 L 118.300781 134.699219 "/>
<path style="fill:none;stroke-width:1.2;stroke-linecap:butt;stroke-linejoin:miter;stroke:rgb(0%,0%,100%);stroke-opacity:1;stroke-miterlimit:10;" d="M 138.863281 138.929688 L 129.851562 139.40625 "/>
<path style="fill:none;stroke-width:1.2;stroke-linecap:butt;stroke-linejoin:miter;stroke:rgb(0%,0%,0%);stroke-opacity:1;stroke-miterlimit:10;" d="M 129.851562 139.40625 L 120.835938 139.882812 "/>
<path style=" stroke:none;fill-rule:nonzero;fill:rgb(100%,100%,100%);fill-opacity:1;" d="M 137.839844 128.007812 L 144.839844 128.007812 L 144.839844 139.007812 L 137.839844 139.007812 Z M 137.839844 128.007812 "/>
<g style="fill:rgb(0%,0%,100%);fill-opacity:1;">
  <use xlink:href="#glyph0-1" x="137.839844" y="136.670898"/>
</g>
<path style="fill:none;stroke-width:1.2;stroke-linecap:butt;stroke-linejoin:miter;stroke:rgb(0%,0%,0%);stroke-opacity:1;stroke-miterlimit:10;" d="M 118.300781 134.699219 L 115.386719 145.597656 "/>
<path style="fill:none;stroke-width:1.2;stroke-linecap:butt;stroke-linejoin:miter;stroke:rgb(0%,0%,100%);stroke-opacity:1;stroke-miterlimit:10;" d="M 115.386719 145.597656 L 112.46875 156.5 "/>
<path style="fill:none;stroke-width:1.2;stroke-linecap:butt;stroke-linejoin:miter;stroke:rgb(0%,0%,0%);stroke-opacity:1;stroke-miterlimit:10;" d="M 118.300781 134.699219 L 104.09375 117.167969 "/>
<path style="fill:none;stroke-width:1.2;stroke-linecap:butt;stroke-linejoin:miter;stroke:rgb(0%,0%,100%);stroke-opacity:1;stroke-miterlimit:10;" d="M 112.46875 156.5 L 101.9375 160.546875 "/>
<path style="fill:none;stroke-width:1.2;stroke-linecap:butt;stroke-linejoin:miter;stroke:rgb(0%,0%,0%);stroke-opacity:1;stroke-miterlimit:10;" d="M 101.9375 160.546875 L 91.40625 164.597656 "/>
<path style=" stroke:none;fill-rule:nonzero;fill:rgb(100%,100%,100%);fill-opacity:1;" d="M 109.46875 151 L 116.46875 151 L 116.46875 162 L 109.46875 162 Z M 109.46875 151 "/>
<g style="fill:rgb(0%,0%,100%);fill-opacity:1;">
  <use xlink:href="#glyph0-1" x="109.46875" y="159.663086"/>
</g>
<path style="fill:none;stroke-width:1.2;stroke-linecap:butt;stroke-linejoin:miter;stroke:rgb(0%,0%,0%);stroke-opacity:1;stroke-miterlimit:10;" d="M 91.40625 164.597656 L 87.882812 186.886719 "/>
<path style="fill:none;stroke-width:1.2;stroke-linecap:butt;stroke-linejoin:miter;stroke:rgb(0%,0%,0%);stroke-opacity:1;stroke-miterlimit:10;" d="M 91.40625 164.597656 L 73.859375 150.402344 "/>
<path style="fill:none;stroke-width:1.2;stroke-linecap:butt;stroke-linejoin:miter;stroke:rgb(0%,0%,0%);stroke-opacity:1;stroke-miterlimit:10;" d="M 73.859375 150.402344 L 63.328125 154.449219 "/>
<path style="fill:none;stroke-width:1.2;stroke-linecap:butt;stroke-linejoin:miter;stroke:rgb(0%,0%,100%);stroke-opacity:1;stroke-miterlimit:10;" d="M 63.328125 154.449219 L 52.792969 158.5 "/>
<path style="fill:none;stroke-width:1.2;stroke-linecap:butt;stroke-linejoin:miter;stroke:rgb(0%,0%,100%);stroke-opacity:1;stroke-miterlimit:10;" d="M 52.792969 158.5 L 44.023438 151.402344 "/>
<path style="fill:none;stroke-width:1.2;stroke-linecap:butt;stroke-linejoin:miter;stroke:rgb(0%,0%,0%);stroke-opacity:1;stroke-miterlimit:10;" d="M 44.023438 151.402344 L 35.25 144.304688 "/>
<path style="fill:none;stroke-width:1.2;stroke-linecap:butt;stroke-linejoin:miter;stroke:rgb(0%,0%,100%);stroke-opacity:1;stroke-miterlimit:10;" d="M 52.792969 158.5 L 51.035156 169.644531 "/>
<path style="fill:none;stroke-width:1.2;stroke-linecap:butt;stroke-linejoin:miter;stroke:rgb(0%,0%,0%);stroke-opacity:1;stroke-miterlimit:10;" d="M 51.035156 169.644531 L 49.273438 180.789062 "/>
<path style=" stroke:none;fill-rule:nonzero;fill:rgb(100%,100%,100%);fill-opacity:1;" d="M 49.792969 153 L 56.792969 153 L 56.792969 164 L 49.792969 164 Z M 49.792969 153 "/>
<g style="fill:rgb(0%,0%,100%);fill-opacity:1;">
  <use xlink:href="#glyph0-1" x="49.792969" y="161.663086"/>
</g>
<path style="fill:none;stroke-width:1.2;stroke-linecap:butt;stroke-linejoin:miter;stroke:rgb(0%,0%,0%);stroke-opacity:1;stroke-miterlimit:10;" d="M 104.09375 117.167969 L 112.171875 96.09375 "/>
<path style="fill:none;stroke-width:1.2;stroke-linecap:butt;stroke-linejoin:miter;stroke:rgb(0%,0%,0%);stroke-opacity:1;stroke-miterlimit:10;" d="M 99.941406 113.15625 L 106.402344 96.300781 "/>
<path style="fill:none;stroke-width:1.2;stroke-linecap:butt;stroke-linejoin:miter;stroke:rgb(0%,0%,0%);stroke-opacity:1;stroke-miterlimit:10;" d="M 81.804688 120.707031 L 104.09375 117.167969 "/>
<path style="fill:none;stroke-width:1.2;stroke-linecap:butt;stroke-linejoin:miter;stroke:rgb(0%,0%,0%);stroke-opacity:1;stroke-miterlimit:10;" d="M 112.171875 96.09375 L 97.960938 78.5625 "/>
<path style="fill:none;stroke-width:1.2;stroke-linecap:butt;stroke-linejoin:miter;stroke:rgb(0%,0%,0%);stroke-opacity:1;stroke-miterlimit:10;" d="M 97.960938 78.5625 L 75.671875 82.101562 "/>
<path style="fill:none;stroke-width:1.2;stroke-linecap:butt;stroke-linejoin:miter;stroke:rgb(0%,0%,0%);stroke-opacity:1;stroke-miterlimit:10;" d="M 96.5625 84.160156 L 78.734375 86.992188 "/>
<path style="fill:none;stroke-width:1.2;stroke-linecap:butt;stroke-linejoin:miter;stroke:rgb(0%,0%,0%);stroke-opacity:1;stroke-miterlimit:10;" d="M 75.671875 82.101562 L 67.59375 103.171875 "/>
<path style="fill:none;stroke-width:1.2;stroke-linecap:butt;stroke-linejoin:miter;stroke:rgb(0%,0%,0%);stroke-opacity:1;stroke-miterlimit:10;" d="M 67.59375 103.171875 L 81.804688 120.707031 "/>
<path style="fill:none;stroke-width:1.2;stroke-linecap:butt;stroke-linejoin:miter;stroke:rgb(0%,0%,0%);stroke-opacity:1;stroke-miterlimit:10;" d="M 73.140625 101.582031 L 84.507812 115.609375 "/>
</g>
</svg>

<svg xmlns="http://www.w3.org/2000/svg" xmlns:xlink="http://www.w3.org/1999/xlink" width="300pt" height="300pt" viewBox="0 0 300 300"><defs><symbol overflow="visible"><path d="M.453 1.594v-7.938h4.5v7.938zm.5-.5h3.5v-6.938h-3.5zm0 0"/></symbol><symbol overflow="visible" id="a"><path d="M.89-6.563H2.08l2.906 5.485v-5.484h.86V0H4.656L1.75-5.484V0H.89zm0 0"/></symbol><symbol overflow="visible" id="b"><path d="M.89-6.563h.876v2.688H5v-2.688h.89V0H5v-3.125H1.766V0H.89zm0 0"/></symbol></defs><g><path fill="#fff" d="M0 0h300v300H0z"/><path d="M159.555 221.438l-3.54-22.29M156.016 199.148l-10.536-4.04" stroke-width="1.2" stroke="#000" stroke-miterlimit="10" fill="none"/><path d="M145.48 195.11l-10.54-4.04" stroke-width="1.2" stroke="#00f" stroke-miterlimit="10" fill="none"/><path d="M155.81 193.383l-8.43-3.23" stroke-width="1.2" stroke="#000" stroke-miterlimit="10" fill="none"/><path d="M147.38 190.152l-8.43-3.23M173.547 184.94l-8.766 7.107" stroke-width="1.2" stroke="#00f" stroke-miterlimit="10" fill="none"/><path d="M164.78 192.047l-8.764 7.1" stroke-width="1.2" stroke="#000" stroke-miterlimit="10" fill="none"/><path d="M134.94 191.07l-1.768-11.144" stroke-width="1.2" stroke="#00f" stroke-miterlimit="10" fill="none"/><path d="M133.172 179.926l-1.77-11.145" stroke-width="1.2" stroke="#000" stroke-miterlimit="10" fill="none"/><path d="M131.94 185.57h7v11h-7zm0 0" fill="#fff"/><use xlink:href="#a" x="131.941" y="194.233" fill="#00f"/><path d="M131.402 168.78l17.532-14.206M129.813 163.238l14.027-11.37" stroke-width="1.2" stroke="#000" stroke-miterlimit="10" fill="none"/><path d="M112.47 156.5l9.468 6.14" stroke-width="1.2" stroke="#00f" stroke-miterlimit="10" fill="none"/><path d="M121.938 162.64l9.464 6.14M148.934 154.574l21.074 8.078M148.934 154.574l-4.047-10.535" stroke-width="1.2" stroke="#000" stroke-miterlimit="10" fill="none"/><path d="M144.887 144.04l-4.047-10.532" stroke-width="1.2" stroke="#00f" stroke-miterlimit="10" fill="none"/><path d="M170.008 162.652l1.77 11.145" stroke-width="1.2" stroke="#000" stroke-miterlimit="10" fill="none"/><path d="M171.777 173.797l1.77 11.144" stroke-width="1.2" stroke="#00f" stroke-miterlimit="10" fill="none"/><path d="M165.117 165.715l1.418 8.914" stroke-width="1.2" stroke="#000" stroke-miterlimit="10" fill="none"/><path d="M166.535 174.63l1.414 8.913" stroke-width="1.2" stroke="#00f" stroke-miterlimit="10" fill="none"/><path d="M170.008 162.652l8.765-7.105" stroke-width="1.2" stroke="#000" stroke-miterlimit="10" fill="none"/><path d="M178.773 155.547l8.766-7.106" stroke-width="1.2" stroke="#00f" stroke-miterlimit="10" fill="none"/><path d="M170.547 179.44h7v11h-7zm0 0" fill="#fff"/><use xlink:href="#a" x="170.547" y="188.104" fill="#00f"/><path d="M187.54 148.44l10.538 4.04" stroke-width="1.2" stroke="#00f" stroke-miterlimit="10" fill="none"/><path d="M198.078 152.48l10.535 4.04" stroke-width="1.2" stroke="#000" stroke-miterlimit="10" fill="none"/><path d="M180.54 142.94h14v11h-14zm0 0" fill="#fff"/><g fill="#00f"><use xlink:href="#a" x="180.539" y="151.604"/><use xlink:href="#b" x="187.517" y="151.604"/></g><path d="M208.613 156.52l17.532-14.21M226.145 142.31l21.074 8.077M230.152 138.16l16.86 6.46M222.605 120.02l3.54 22.29M247.22 150.387l17.53-14.207M264.75 136.18l-3.54-22.29M259.152 134.78l-2.832-17.827M261.21 113.89l-21.073-8.078M240.137 105.813l-17.532 14.207M241.727 111.36l-14.024 11.367" stroke-width="1.2" stroke="#000" stroke-miterlimit="10" fill="none"/><path d="M140.84 133.508l-11.27.594" stroke-width="1.2" stroke="#00f" stroke-miterlimit="10" fill="none"/><path d="M129.57 134.102l-11.27.597" stroke-width="1.2" stroke="#000" stroke-miterlimit="10" fill="none"/><path d="M138.863 138.93l-9.01.476" stroke-width="1.2" stroke="#00f" stroke-miterlimit="10" fill="none"/><path d="M129.852 139.406l-9.016.477" stroke-width="1.2" stroke="#000" stroke-miterlimit="10" fill="none"/><path d="M137.84 128.008h7v11h-7zm0 0" fill="#fff"/><use xlink:href="#a" x="137.84" y="136.671" fill="#00f"/><path d="M118.3 134.7l-2.913 10.898" stroke-width="1.2" stroke="#000" stroke-miterlimit="10" fill="none"/><path d="M115.387 145.598L112.47 156.5" stroke-width="1.2" stroke="#00f" stroke-miterlimit="10" fill="none"/><path d="M118.3 134.7l-14.206-17.532" stroke-width="1.2" stroke="#000" stroke-miterlimit="10" fill="none"/><path d="M112.47 156.5l-10.532 4.047" stroke-width="1.2" stroke="#00f" stroke-miterlimit="10" fill="none"/><path d="M101.938 160.547l-10.532 4.05" stroke-width="1.2" stroke="#000" stroke-miterlimit="10" fill="none"/><path d="M109.47 151h7v11h-7zm0 0" fill="#fff"/><use xlink:href="#a" x="109.469" y="159.663" fill="#00f"/><path d="M91.406 164.598l-3.523 22.29M91.406 164.598L73.86 150.402M73.86 150.402l-10.532 4.047" stroke-width="1.2" stroke="#000" stroke-miterlimit="10" fill="none"/><path d="M63.328 154.45l-10.535 4.05M52.793 158.5l-8.77-7.098" stroke-width="1.2" stroke="#00f" stroke-miterlimit="10" fill="none"/><path d="M44.023 151.402l-8.773-7.097" stroke-width="1.2" stroke="#000" stroke-miterlimit="10" fill="none"/><path d="M52.793 158.5l-1.758 11.145" stroke-width="1.2" stroke="#00f" stroke-miterlimit="10" fill="none"/><path d="M51.035 169.645l-1.762 11.144" stroke-width="1.2" stroke="#000" stroke-miterlimit="10" fill="none"/><path d="M49.793 153h7v11h-7zm0 0" fill="#fff"/><use xlink:href="#a" x="49.793" y="161.663" fill="#00f"/><path d="M104.094 117.168l8.078-21.074M99.94 113.156l6.462-16.855M81.805 120.707l22.29-3.54M112.172 96.094l-14.21-17.53M97.96 78.563l-22.288 3.54M96.563 84.16l-17.83 2.832M75.672 82.102l-8.078 21.07M67.594 103.172l14.21 17.535M73.14 101.582L84.51 115.61" stroke-width="1.2" stroke="#000" stroke-miterlimit="10" fill="none"/></g></svg>
